X: 4646
T: Boxing, The
R: reel
M: 4/4
K: Adorian
|:EAAG ABcd|eged cABG|EAAB cBcd|eaag a3b|
c'/b/abg aged|e/f/ged cABG|EAce dcAG|GAAG A2A2:|
e3f eAde|fAgf eAde|f3g fAde|faa^g a2a2|
f3g fAde|fAgf eAcA|EAce dcAG|GAAG A2A2|
f3g fAde|fAgf eAde|f3g fAde|faa^g a2ab|
c'/b/abg aged|e/f/ged cABG|EAce dcAG|GAAG A2A2|

